X:1
T:The Gospel Invitation
T:The Gospel Invitation
T:Jacob Henry Hall
T:Laura Emeline Pixley Newell, 1898
T:Public Domain Courtesy of the Cyber Hymnal™
T:Public Domain Courtesy of the Cyber Hymnal™
C:Jacob Henry Hall
Z:Public Domain
Z:Courtesy of the Cyber Hymnal™
%%score ( 1 2 ) ( 3 4 )
L:1/8
Q:1/4=92
M:4/4
K:D
V:1 treble 
V:2 treble 
V:3 bass 
V:4 bass 
V:1
 [DF]>[EG] | [FA]>[FA] [FA]>[GB] [FA]>[DF] [CE]>D | [Dd]>[Gd] [Gd]>[GB] [FA]2 [FA]>[FA] | %3
w: 1.~Have you|heard the in- vi- ta- tion? Je- sus|says, “Come un- to Me, Come to|
w: 2.~There are|bless- èd ma- ny man- sions Wait- ing|for the pure and true; “Come to|
w: 3.~Hea- vy|la- den, or a- wea- ry, Je- sus|says, “In Me find rest, Come to|
w: 4.~Time is|short, and days are fleet- ing, Heed the|mes- sage, “Come to Me, Come to|
 A4- [GA]>[FA] [GB]>[FA] | [FA]6 [DF]>[EG] | [FA]>[FA] [FA]>[GB] [FA]>[DF] [CE]>D | %6
w: Me, O, come to Me.”|* ’Tis the|mes- sage of sal- va- tion, That the|
w: Me, O, come to Me.”|* There in|Hea- ven’s green ex- pan- sions Hear the|
w: Me, O come to Me.”|* Does your|path in life seem drea- ry? By His|
w: Me, O, come to Me.”|* O, the|joy of yon- der greet- ing, In the|
 [Dd]>[Gd] [Gd]>[GB] [FA]2 [FA]>[FA] | A4- [GA]>[FA] (3([EG][DF])[CE] | D6 || %9
w: Mas- ter brings to thee, “Come to|Me, O, come to * Me.”||
w: Sav- ior call to you, “Come to|Me, O, come to * Me.”||
w: love you may be blest, “Come to|Me, O, come to * Me.”||
w: home be- yond the sea, “Come to|Me, O, come to * Me.”||
"^Refrain" (3(A[^GB])[=Gc] | [Fd]4- [Fd]>[Ge] [Fd]>[GB] | [FA]6 [FA]>[FA] | %12
w: |||
w: “Come * to|Me, * O, come to|Me”; Je- sus|
w: |||
w: |||
 A4- [GA]>[FA] (3([EG][DF])[CE] | F6 (3(A[^GB])[=Gc] | [Fd]4- [Fd]>[Ge] [Fd]>[GB] | %15
w: |||
w: says, “Come un- to * Me.”|* Wea- * ry|heart, * for re- fuge|
w: |||
w: |||
 [FA]6 [FA]>[FA] | A4- [GA]>[FA] (3([EG][DF])[CE] | D6 |] %18
w: |||
w: flee Un- to|Christ who call- eth * thee.||
w: |||
w: |||
V:2
 x2 | x15/2 D/ | x8 | G2 E3/2 F/ x4 | x8 | x15/2 D/ | x8 | G2 E3/2 F/ x4 | D6 || A x | x8 | x8 | %12
 G2 E3/2 F/ x4 | (D>DD>D D2) A x | x8 | x8 | G2 E3/2 F/ x4 | (D>A, B,>B, A,2) |] %18
V:3
 [D,A,]>[D,A,] | [D,D]>[D,D] [D,D]>[D,D] [D,D]>[D,A,] [E,A,]>[F,A,] | %2
w: ~ ~|~ ~ ~ ~ ~ ~ ~ ~|
 [G,B,]>[G,B,] [G,B,]>[G,D] [D,D]2 z2 | z2 ([A,,C]>[A,,D] [A,,E]3/2) z/ z2 | %4
w: ~ ~ ~ ~ ~|~ * *|
 z3/2 ([D,D]<[D,D][D,D]/ [D,D]2) [D,A,]>[D,A,] | %5
w: ~ * * * ~ ~|
 [D,D]>[D,D] [D,D]>[D,D] [D,D]>[D,A,] [E,A,]>[F,A,] | [G,B,]>[G,B,] [G,B,]>[G,D] [D,D]2 z2 | %7
w: ~ ~ ~ ~ ~ ~ ~ ~|~ ~ ~ ~ ~|
 z2 ([A,,C]>[A,,D] [A,,E]>)[A,,D] [A,,A,]>[A,,G,] | [D,F,]6 || z2 | %10
w: ~ * * ~ ~ ~|~||
 z2 [D,A,]>[D,A,] [D,A,]3/2 z/ z2 | z3/2 [D,D]/ [D,D]>[D,D] [D,D]2 z2 | %12
w: Come to Me,|O, come to Me;|
 z2 [A,,C]>[A,,D] [A,,E]>[A,,D] [A,,A,]>[A,,A,] | [D,A,]>[D,A,] [D,A,]>[D,A,] [D,A,]2 z2 | %14
w: Je- sus says, “Come un- to|Me, come un- to Me.”|
 z2 [D,A,]>[D,A,] [D,A,]3/2 z/ z2 | z3/2 [D,D]/ [D,D]>[D,D] [D,D]2 z2 | %16
w: Wea- ry heart,|for re- fuge flee,|
 z2 [A,,C]>[A,,D] [A,,E]>[A,,D] [A,,A,]>[A,,G,] | F,>F, G,>G, F,2 |] %18
w: Un- to Christ who call- eth|thee, who call- eth thee.|
V:4
 x2 | x8 | x8 | x8 | x8 | x8 | x8 | x8 | x6 || x2 | x8 | x8 | x8 | x8 | x8 | x8 | x8 | D,6 |] %18

